X: 1
T: Cape Breton's Own
M: 6/8
L: 1/8
R: jig
K: Fmaj
|: c3 B3 | Acf afc | Bce gfe | fag fed |
c3 B3 | Acf afc | Bce gfe |1 fcA F3 :|
2 fcA f2e ||
|: d2 e fed | ade fed | e^cA ABA | Aba gfe |
d2 e fed | ade fed |1 ^cBA bag | fd^c d3 :|
2 aba gfe|fag fed ||
